X: 39692
T: Teran, The
R: reel
M: 4/4
K: Gmajor
d3 c BG (3GGG|FG AF GG, (3G,G,G,|CD B,C A,D FA|GD BD cA Fd|
BG (3GGG FG AF|GG, (3G,G,G, B,C DG|Ec AF GD (3DDD|ED FA G2 G2:|
|:(3G,GB (3.B.G.G, (3CEc (3.c.E.C|dc Bd gb gd|ec AG (3FFF GA|
GD dd ed fa|ga bg (3ggg dB|cg fa gd BG|(3EEE FA GD dd|
ec AF G2 G2:|

